desktop/resources/assets/square-multiple.svg

<svg width="16" height="16" viewBox="0 0 16 16" fill="none" xmlns="http://www.w3.org/2000/svg">
<path d="M5.08496 4C5.29088 3.4174 5.8465 3 6.49961 3H9.99961C11.6565 3 12.9996 4.34315 12.9996 6V9.5C12.9996 10.1531 12.5822 10.7087 11.9996 10.9146V6C11.9996 4.89543 11.1042 4 9.99961 4H5.08496ZM4.5 5H9.5C10.3284 5 11 5.67157 11 6.5V11.5C11 12.3284 10.3284 13 9.5 13H4.5C3.67157 13 3 12.3284 3 11.5V6.5C3 5.67157 3.67157 5 4.5 5ZM4.5 6C4.22386 6 4 6.22386 4 6.5V11.5C4 11.7761 4.22386 12 4.5 12H9.5C9.77614 12 10 11.7761 10 11.5V6.5C10 6.22386 9.77614 6 9.5 6H4.5Z" fill="#888"/>
</svg>

<svg xmlns="http://www.w3.org/2000/svg" width="16" height="16" fill="none"><path fill="#888" d="M5.085 4A1.5 1.5 0 0 1 6.5 3H10a3 3 0 0 1 3 3v3.5a1.5 1.5 0 0 1-1 1.415V6a2 2 0 0 0-2-2zM4.5 5h5A1.5 1.5 0 0 1 11 6.5v5A1.5 1.5 0 0 1 9.5 13h-5A1.5 1.5 0 0 1 3 11.5v-5A1.5 1.5 0 0 1 4.5 5m0 1a.5.5 0 0 0-.5.5v5a.5.5 0 0 0 .5.5h5a.5.5 0 0 0 .5-.5v-5a.5.5 0 0 0-.5-.5z"/></svg>
